X: 1
T: STEP AND FETCH HER
S: RD, from Arnold Woodley
O: Bampton
P: A.(A2BC)3
B: Morris Ring
Z: 2005 John Chambers <jc@trillian.mit.edu>
M: 4/4
L: 1/8
K: G
P: A
A |: B2B2 cBcA | G2e2 egfe | d2Bd cBcA | G2B2 G4 :|
P: B
     A3c  B2d2 | A3c  B2d2 | A3c  B2d2 | dcBA B2G2 |
	 A2Ac B2d2 | A2Ac B2d2 | A2Ac B2d2 | dcBA G3  ||
P: C
A |  B2Bc d2cB | A2AB c2A2 | B2Bc d2g2 | dcBA G3A |
     B2Bc d2cB | A2AB c2A2 | B2Bc d2g2 | fdef g4 ||
